X: 29
T:Merry Man Hornpipe (#333), The
M:4/4
L:1/8
S:Wilson's Companion to the Ballroom 1816
R:Hornpipe
K:G
DE/2F/2|G2 G2 GBAc|B2 B2 Bdce|dgfe dcBA|BGdB cAFD|
G2 G2 GBAc|B2 B2 Bdce|dgfe dcBA|G2 GG G2:|
|:dc|Bgdg Bgdg|cgeg cgeg|c'afd c'afd|b2 g2 g2 dc|
Bgdg Bgdg|cgeg cgeg|c'afd c'afd|g2 gg g2:||

